icons/folder-shield-fill.svg

<svg xmlns="http://www.w3.org/2000/svg" width="24" height="24" fill="none"><g clip-path="url(#a)"><g><path fill="#121212" d="M12.414 5H21C21.2652 5 21.5196 5.10536 21.7071 5.29289C21.8946 5.48043 22 5.73478 22 6V20C22 20.2652 21.8946 20.5196 21.7071 20.7071C21.5196 20.8946 21.2652 21 21 21H3C2.73478 21 2.48043 20.8946 2.29289 20.7071C2.10536 20.5196 2 20.2652 2 20V4C2 3.73478 2.10536 3.48043 2.29289 3.29289C2.48043 3.10536 2.73478 3 3 3H10.414L12.414 5ZM8 9V13.904C8 14.796 8.446 15.628 9.187 16.123L12 17.998L14.813 16.123C15.1782 15.8794 15.4776 15.5494 15.6847 15.1623C15.8917 14.7752 16.0001 14.343 16 13.904V9H8ZM10 13.904V11H14V13.904C14 14.0138 13.9729 14.1219 13.9211 14.2187C13.8693 14.3156 13.7944 14.3981 13.703 14.459L12 15.594L10.297 14.459C10.2056 14.3981 10.1307 14.3156 10.0789 14.2187C10.0271 14.1219 9.99999 14.0138 10 13.904Z"/></g></g><defs><clipPath id="a"><rect width="24" height="24" fill="white"/></clipPath></defs></svg>

<svg width="24" height="24" fill="none" xmlns="http://www.w3.org/2000/svg"><g clip-path="url(#a)"><path d="M12.414 5H21a1 1 0 0 1 1 1v14a1 1 0 0 1-1 1H3a1 1 0 0 1-1-1V4a1 1 0 0 1 1-1h7.414l2 2ZM8 9v4.904c0 .892.446 1.724 1.187 2.219L12 17.998l2.813-1.875A2.667 2.667 0 0 0 16 13.904V9H8Zm2 4.904V11h4v2.904a.667.667 0 0 1-.297.555L12 15.594l-1.703-1.135a.666.666 0 0 1-.297-.555Z" /></g><defs><clipPath id="a"><path fill="#fff" d="M0 0h24v24H0z"/></clipPath></defs></svg>
